public/assets/img/aboutus/vission.svg

<svg id="ehbUYyjMESB1" xmlns="http://www.w3.org/2000/svg" xmlns:xlink="http://www.w3.org/1999/xlink" viewBox="0 0 86 75" shape-rendering="geometricPrecision" text-rendering="geometricPrecision" project-id="fffdb3058ffc443abe25f67e27162de3" export-id="23e23b2e0d8f48c2b3855f429ef321a9" cached="false">
<style><![CDATA[
#ehbUYyjMESB6 {animation: ehbUYyjMESB6_s_do 3000ms linear infinite normal forwards}@keyframes ehbUYyjMESB6_s_do { 0% {stroke-dashoffset: 168} 53.333333% {stroke-dashoffset: 0} 100% {stroke-dashoffset: 0}} #ehbUYyjMESB7 {animation: ehbUYyjMESB7_s_do 3000ms linear infinite normal forwards}@keyframes ehbUYyjMESB7_s_do { 0% {stroke-dashoffset: 123} 73.333333% {stroke-dashoffset: 0} 100% {stroke-dashoffset: 0}} #ehbUYyjMESB8 {animation: ehbUYyjMESB8_s_do 3000ms linear infinite normal forwards}@keyframes ehbUYyjMESB8_s_do { 0% {stroke-dashoffset: 35} 26.666667% {stroke-dashoffset: 0} 100% {stroke-dashoffset: 0}}
]]></style>
<path d="M69.793,1.44226h10.8029c1.774,0,3.2163,1.44231,3.2163,3.21635v10.80289" fill="none" stroke="#7d7d7d" stroke-width="2" stroke-linecap="round" stroke-linejoin="round" stroke-dashoffset="10" stroke-dasharray="26"/><path d="M15.4606,1.44226h-10.80285c-1.77404,0-3.21634,1.44231-3.21634,3.21635v10.80289" fill="none" stroke="#7d7d7d" stroke-width="2" stroke-linecap="round" stroke-linejoin="round" stroke-dashoffset="10" stroke-dasharray="26"/><path d="M69.793,73.5577h10.8029c1.774,0,3.2163-1.4423,3.2163-3.2164v-10.8028" fill="none" stroke="#7d7d7d" stroke-width="2" stroke-linecap="round" stroke-linejoin="round" stroke-dasharray="26"/><path d="M15.4606,73.5577h-10.80285c-1.77404,0-3.21634-1.4423-3.21634-3.2164v-10.8028" fill="none" stroke="#7d7d7d" stroke-width="2" stroke-linecap="round" stroke-linejoin="round" stroke-dasharray="26"/><path id="ehbUYyjMESB6" d="M78.5038,37.5143c-23.9134,26.1202-47.8269,26.1202-71.74037,0c23.91347-26.1202,47.82697-26.1202,71.74037,0Z" fill="none" stroke="#7d7d7d" stroke-width="2" stroke-linecap="round" stroke-linejoin="round" stroke-dashoffset="168" stroke-dasharray="168"/><path id="ehbUYyjMESB7" d="M62.22,37.5144c0,10.8173-8.7693,19.5865-19.5866,19.5865s-19.5865-8.7692-19.5865-19.5865s8.7692-19.5865,19.5865-19.5865s19.5866,8.7692,19.5866,19.5865Z" fill="none" stroke="#7d7d7d" stroke-width="2" stroke-linecap="round" stroke-linejoin="round" stroke-dashoffset="123" stroke-dasharray="123"/><path id="ehbUYyjMESB8" d="M48.3601,37.5144c0,3.1587-2.5673,5.726-5.7259,5.726-3.1587,0-5.726-2.5673-5.726-5.726s2.5673-5.7259,5.726-5.7259c3.1586,0,5.7259,2.5673,5.7259,5.7259Z" fill="none" stroke="#7d7d7d" stroke-width="2" stroke-linecap="round" stroke-linejoin="round" stroke-dashoffset="35" stroke-dasharray="35"/></svg>

<svg width="86" height="75" viewBox="0 0 86 75" fill="none" xmlns="http://www.w3.org/2000/svg">
<path d="M69.793 1.44226H80.5959C82.3699 1.44226 83.8122 2.88457 83.8122 4.65861V15.4615" stroke="#7D7D7D" stroke-width="2" stroke-linecap="round" stroke-linejoin="round"/>
<path d="M15.4606 1.44226H4.65775C2.88371 1.44226 1.44141 2.88457 1.44141 4.65861V15.4615" stroke="#7D7D7D" stroke-width="2" stroke-linecap="round" stroke-linejoin="round"/>
<path d="M69.793 73.5577H80.5959C82.3699 73.5577 83.8122 72.1154 83.8122 70.3413V59.5385" stroke="#7D7D7D" stroke-width="2" stroke-linecap="round" stroke-linejoin="round"/>
<path d="M15.4606 73.5577H4.65775C2.88371 73.5577 1.44141 72.1154 1.44141 70.3413V59.5385" stroke="#7D7D7D" stroke-width="2" stroke-linecap="round" stroke-linejoin="round"/>
<path d="M78.5038 37.5143C54.5904 63.6345 30.6769 63.6345 6.76343 37.5143C30.6769 11.3941 54.5904 11.3941 78.5038 37.5143Z" stroke="#7D7D7D" stroke-width="2" stroke-linecap="round" stroke-linejoin="round"/>
<path d="M62.22 37.5144C62.22 48.3317 53.4507 57.1009 42.6334 57.1009C31.8161 57.1009 23.0469 48.3317 23.0469 37.5144C23.0469 26.6971 31.8161 17.9279 42.6334 17.9279C53.4507 17.9279 62.22 26.6971 62.22 37.5144Z" stroke="#7D7D7D" stroke-width="2" stroke-linecap="round" stroke-linejoin="round"/>
<path d="M48.3601 37.5144C48.3601 40.6731 45.7928 43.2404 42.6342 43.2404C39.4755 43.2404 36.9082 40.6731 36.9082 37.5144C36.9082 34.3558 39.4755 31.7885 42.6342 31.7885C45.7928 31.7885 48.3601 34.3558 48.3601 37.5144Z" stroke="#7D7D7D" stroke-width="2" stroke-linecap="round" stroke-linejoin="round"/>
</svg>
